packages/vibrant-icons/assets/icons/Text/Thin.svg

<svg width="24" height="24" viewBox="0 0 24 24" fill="none" xmlns="http://www.w3.org/2000/svg">
<path d="M11.0494 4.8004H4.79941V6.4009C4.79941 6.51136 4.70987 6.6009 4.59941 6.6009H3.09941C2.98896 6.6009 2.89941 6.51136 2.89941 6.4009V3.0999C2.89941 2.98945 2.98896 2.8999 3.09941 2.8999H20.9036C20.764 2.8999 21.1036 2.98945 21.1036 3.0999V6.4009C21.1036 6.51136 21.014 6.6009 20.9036 6.6009H19.4036C19.2931 6.6009 19.2036 6.51136 19.2036 6.4009V4.8004H12.9536V19.1999H14.4036C14.514 19.1999 14.6036 19.2894 14.6036 19.3999V20.9004C14.6036 21.0109 14.514 21.1004 14.4036 21.1004H9.59942C9.48896 21.1004 9.39942 21.0109 9.39942 20.9004V19.3999C9.39942 19.2894 9.48896 19.1999 9.59942 19.1999H11.0494V4.8004Z" fill="#0C0C0C"/>
</svg>

<svg xmlns="http://www.w3.org/2000/svg" width="24" height="24" fill="none"><path fill="#0C0C0C" d="M11.05 4.8H4.8v1.6a.2.2 0 0 1-.2.2H3.1a.2.2 0 0 1-.2-.2V3.1a.2.2 0 0 1 .2-.2h17.804c-.14 0 .2.09.2.2v3.3a.2.2 0 0 1-.2.2h-1.5a.2.2 0 0 1-.2-.2V4.8h-6.25v14.4h1.45c.11 0 .2.09.2.2v1.5a.2.2 0 0 1-.2.2H9.599a.2.2 0 0 1-.2-.2v-1.5c0-.11.09-.2.2-.2h1.45z"/></svg>
